; generated by PrusaSlicer 2.3.0+linux-x64 on 2021-04-10 at 16:19:23 UTC

; 

; external perimeters extrusion width = 0.45mm
; perimeters extrusion width = 0.45mm
; infill extrusion width = 0.45mm
; solid infill extrusion width = 0.45mm
; top infill extrusion width = 0.45mm
; first layer extrusion width = 0.42mm

M201 X500 Y500 Z100 E5000 ; sets maximum accelerations, mm/sec^2
M203 X500 Y500 Z10 E60 ; sets maximum feedrates, mm/sec
M204 P500 R1000 T500 ; sets acceleration (P, T) and retract acceleration (R), mm/sec^2
M205 X8.00 Y8.00 Z0.40 E5.00 ; sets the jerk limits, mm/sec
M205 S0 T0 ; sets the minimum extruding and travel feed rate, mm/sec
M107
;TYPE:Custom
G90 ; use absolute coordinates
M83 ; extruder relative mode
M104 S215 ; set extruder temp
M140 S60 ; set bed temp
M190 S60 ; wait for bed temp
M109 S215 ; wait for extruder temp
G28 ; home all
G1 Z2 F240
G1 X2 Y10 F3000
G1 Z0.28 F240
G92 E0
G1 Y190 E15 F1500 ; intro line
G1 X2.3 F5000
G92 E0
G1 Y10 E15 F1200 ; intro line
G92 E0
G21 ; set units to millimeters
G90 ; use absolute coordinates
M83 ; use relative distances for extrusion
; Filament gcode
;LAYER_CHANGE
;Z:0.32
;HEIGHT:0.32
;BEFORE_LAYER_CHANGE
G92 E0
;0.32


G1 E-5.00000 F3600.000
G1 Z0.500 F9000.000
;AFTER_LAYER_CHANGE
;0.32
G1 X98.451 Y68.556
G1 Z0.320
G1 E5.00000 F2400.000
;TYPE:Skirt
;WIDTH:0.42
G1 F1800.000
G1 X99.682 Y68.218 E0.05969
G1 X100.491 Y68.149 E0.03795
G1 X130.506 Y68.149 E1.40290
G1 X131.546 Y68.252 E0.04887
G1 X132.540 Y68.552 E0.04853
G1 X133.464 Y69.044 E0.04892
G1 X134.266 Y69.696 E0.04830
G1 X134.937 Y70.507 E0.04923
G1 X135.428 Y71.413 E0.04816
G1 X135.743 Y72.419 E0.04929
G1 X135.850 Y73.368 E0.04463
G1 X135.853 Y157.511 E3.93291
G1 X135.756 Y158.514 E0.04711
G1 X135.504 Y159.390 E0.04259
G1 X134.853 Y160.609 E0.06459
G1 X134.277 Y161.293 E0.04181
G1 X133.548 Y161.898 E0.04429
G1 X132.390 Y162.504 E0.06107
G1 X131.549 Y162.748 E0.04089
G1 X130.702 Y162.843 E0.03988
G1 X100.472 Y162.851 E1.41298
G1 X99.480 Y162.753 E0.04658
G1 X98.608 Y162.502 E0.04241
G1 X97.383 Y161.846 E0.06495
G1 X96.700 Y161.269 E0.04181
G1 X96.087 Y160.527 E0.04500
G1 X95.486 Y159.362 E0.06124
G1 X95.247 Y158.528 E0.04056
G1 X95.148 Y157.585 E0.04433
G1 X95.147 Y73.489 E3.93072
G1 X95.244 Y72.486 E0.04711
G1 X95.498 Y71.601 E0.04303
G1 X96.133 Y70.409 E0.06310
G1 X96.704 Y69.726 E0.04165
G1 X97.344 Y69.184 E0.03916
G1 X98.399 Y68.585 E0.05668
G1 E-3.50000 F3600.000
;WIPE_START
G1 F7200.000
G1 X99.682 Y68.218 E-0.63431
G1 X100.491 Y68.149 E-0.38569
G1 X101.344 Y68.149 E-0.40500
;WIPE_END
G1 E-0.07500 F3600.000
G1 Z0.820 F9000.000
G1 X94.132 Y69.093
G1 Z0.320
G1 E5.00000 F2400.000
G1 F1800.000
G1 X95.067 Y67.981 E0.06787
G1 X96.088 Y67.136 E0.06196
G1 X97.649 Y66.301 E0.08273
G1 X98.998 Y65.904 E0.06574
G1 X100.177 Y65.768 E0.05548
G1 X130.837 Y65.769 E1.43308
G1 X132.259 Y65.960 E0.06706
G1 X133.623 Y66.414 E0.06720
G1 X134.875 Y67.111 E0.06697
G1 X135.998 Y68.046 E0.06828
G1 X136.925 Y69.176 E0.06831
G1 X137.610 Y70.432 E0.06687
G1 X138.053 Y71.788 E0.06669
G1 X138.235 Y73.212 E0.06712
G1 X138.245 Y157.613 E3.94497
G1 X138.114 Y158.916 E0.06120
G1 X137.766 Y160.188 E0.06161
G1 X136.781 Y162.035 E0.09785
G1 X135.977 Y162.975 E0.05781
G1 X135.037 Y163.779 E0.05779
G1 X133.213 Y164.756 E0.09676
G1 X132.085 Y165.079 E0.05483
G1 X130.908 Y165.227 E0.05545
G1 X100.385 Y165.243 E1.42666
G1 X99.080 Y165.112 E0.06129
G1 X97.809 Y164.764 E0.06159
G1 X95.963 Y163.779 E0.09780
G1 X95.023 Y162.975 E0.05781
G1 X94.219 Y162.035 E0.05783
G1 X93.234 Y160.188 E0.09782
G1 X92.886 Y158.918 E0.06158
G1 X92.755 Y157.614 E0.06125
G1 X92.755 Y73.386 E3.93687
G1 X92.886 Y72.082 E0.06125
G1 X93.234 Y70.812 E0.06156
G1 X94.105 Y69.146 E0.08787
G1 X94.416 Y69.309 F9000.000
G1 F1800.000
G1 X95.304 Y68.241 E0.06492
G1 X96.270 Y67.437 E0.05874
G1 X97.798 Y66.619 E0.08103
G1 X99.053 Y66.251 E0.06114
G1 X100.187 Y66.119 E0.05336
G1 X130.825 Y66.120 E1.43204
G1 X132.195 Y66.306 E0.06462
G1 X133.496 Y66.742 E0.06411
G1 X134.690 Y67.410 E0.06394
G1 X135.737 Y68.282 E0.06373
G1 X136.624 Y69.359 E0.06521
G1 X137.294 Y70.585 E0.06531
G1 X137.714 Y71.880 E0.06361
G1 X137.885 Y73.245 E0.06430
G1 X137.894 Y157.605 E3.94303
G1 X137.766 Y158.866 E0.05925
G1 X137.433 Y160.075 E0.05864
G1 X136.501 Y161.822 E0.09250
G1 X135.738 Y162.717 E0.05499
G1 X134.824 Y163.499 E0.05625
G1 X133.098 Y164.423 E0.09150
G1 X132.001 Y164.738 E0.05331
G1 X130.875 Y164.877 E0.05303
G1 X100.394 Y164.892 E1.42474
G1 X99.131 Y164.764 E0.05934
G1 X97.922 Y164.430 E0.05862
G1 X96.177 Y163.500 E0.09242
G1 X95.262 Y162.717 E0.05626
G1 X94.499 Y161.822 E0.05501
G1 X93.568 Y160.076 E0.09246
G1 X93.234 Y158.867 E0.05861
G1 X93.106 Y157.605 E0.05931
G1 X93.106 Y73.395 E3.93604
G1 X93.234 Y72.133 E0.05931
G1 X93.568 Y70.924 E0.05861
G1 X94.388 Y69.362 E0.08244
G1 X94.698 Y69.526 F9000.000
G1 F1800.000
G1 X94.736 Y69.454 E0.00380
G1 X95.541 Y68.501 E0.05832
G1 X96.452 Y67.738 E0.05551
G1 X97.948 Y66.937 E0.07931
G1 X99.109 Y66.599 E0.05654
G1 X100.198 Y66.470 E0.05124
G1 X130.814 Y66.471 E1.43101
G1 X132.100 Y66.644 E0.06064
G1 X133.368 Y67.070 E0.06254
G1 X134.503 Y67.708 E0.06086
G1 X135.499 Y68.541 E0.06069
G1 X136.342 Y69.569 E0.06214
G1 X136.977 Y70.738 E0.06222
G1 X137.374 Y71.972 E0.06054
G1 X137.535 Y73.277 E0.06150
G1 X137.542 Y157.596 E3.94112
G1 X137.423 Y158.787 E0.05595
G1 X137.099 Y159.963 E0.05703
G1 X136.222 Y161.608 E0.08713
G1 X135.480 Y162.478 E0.05345
G1 X134.610 Y163.220 E0.05342
G1 X132.982 Y164.091 E0.08629
G1 X131.944 Y164.391 E0.05050
G1 X130.843 Y164.527 E0.05187
G1 X100.402 Y164.540 E1.42282
G1 X99.210 Y164.421 E0.05603
G1 X98.034 Y164.097 E0.05701
G1 X96.390 Y163.220 E0.08706
G1 X95.521 Y162.478 E0.05342
G1 X94.778 Y161.608 E0.05347
G1 X93.901 Y159.964 E0.08710
G1 X93.577 Y158.788 E0.05700
G1 X93.458 Y157.596 E0.05600
G1 X93.458 Y73.404 E3.93523
G1 X93.577 Y72.212 E0.05600
G1 X93.901 Y71.036 E0.05701
G1 X94.670 Y69.579 E0.07699
G1 X94.980 Y69.744 F9000.000
G1 F1800.000
G1 X95.037 Y69.636 E0.00571
G1 X95.779 Y68.760 E0.05364
G1 X96.634 Y68.039 E0.05226
G1 X98.097 Y67.256 E0.07758
G1 X99.165 Y66.946 E0.05196
G1 X100.208 Y66.822 E0.04911
G1 X130.802 Y66.823 E1.42999
G1 X132.004 Y66.983 E0.05666
G1 X133.240 Y67.398 E0.06095
G1 X134.316 Y68.005 E0.05775
G1 X135.260 Y68.799 E0.05765
G1 X136.059 Y69.778 E0.05906
G1 X136.660 Y70.891 E0.05912
G1 X137.034 Y72.062 E0.05748
G1 X137.185 Y73.309 E0.05870
G1 X137.191 Y157.587 E3.93923
G1 X137.075 Y158.737 E0.05400
G1 X136.766 Y159.851 E0.05404
G1 X135.942 Y161.395 E0.08180
G1 X135.222 Y162.239 E0.05189
G1 X134.397 Y162.940 E0.05057
G1 X132.867 Y163.759 E0.08111
G1 X131.860 Y164.049 E0.04898
G1 X130.811 Y164.177 E0.04941
G1 X100.411 Y164.189 E1.42092
G1 X99.260 Y164.073 E0.05408
G1 X98.147 Y163.763 E0.05401
G1 X96.603 Y162.940 E0.08176
G1 X95.779 Y162.240 E0.05057
G1 X95.058 Y161.395 E0.05191
G1 X94.235 Y159.851 E0.08176
G1 X93.925 Y158.738 E0.05400
G1 X93.809 Y157.587 E0.05406
G1 X93.809 Y73.413 E3.93439
G1 X93.925 Y72.262 E0.05405
G1 X94.235 Y71.149 E0.05401
G1 X94.952 Y69.797 E0.07154
G1 X94.568 Y71.262 F9000.000
G1 F1800.000
G1 X95.338 Y69.818 E0.07652
G1 X96.018 Y69.018 E0.04904
G1 X96.817 Y68.340 E0.04899
G1 X98.247 Y67.574 E0.07582
G1 X99.221 Y67.293 E0.04739
G1 X100.219 Y67.173 E0.04698
G1 X130.768 Y67.173 E1.42791
G1 X131.909 Y67.321 E0.05378
G1 X133.083 Y67.712 E0.05782
G1 X134.102 Y68.285 E0.05466
G1 X135.021 Y69.057 E0.05609
G1 X135.776 Y69.986 E0.05594
G1 X136.343 Y71.042 E0.05603
G1 X136.694 Y72.152 E0.05441
G1 X136.835 Y73.340 E0.05591
G1 X136.840 Y157.578 E3.93737
G1 X136.727 Y158.686 E0.05204
G1 X136.433 Y159.737 E0.05103
G1 X135.662 Y161.182 E0.07652
G1 X134.983 Y161.981 E0.04901
G1 X134.184 Y162.660 E0.04902
G1 X132.752 Y163.426 E0.07591
G1 X131.777 Y163.708 E0.04744
G1 X130.780 Y163.827 E0.04693
G1 X100.420 Y163.838 E1.41905
G1 X99.311 Y163.725 E0.05211
G1 X98.260 Y163.430 E0.05101
G1 X96.816 Y162.660 E0.07648
G1 X96.017 Y161.981 E0.04901
G1 X95.338 Y161.182 E0.04903
G1 X94.568 Y159.738 E0.07649
G1 X94.273 Y158.687 E0.05100
G1 X94.160 Y157.578 E0.05209
G1 X94.160 Y73.422 E3.93356
G1 X94.273 Y72.313 E0.05209
G1 X94.551 Y71.320 E0.04820
G1 X94.890 Y71.415 F9000.000
G1 F1800.000
G1 X95.618 Y70.031 E0.07309
G1 X96.276 Y69.257 E0.04748
G1 X97.029 Y68.620 E0.04610
G1 X98.363 Y67.906 E0.07071
G1 X99.277 Y67.640 E0.04452
G1 X100.250 Y67.523 E0.04581
G1 X130.735 Y67.523 E1.42489
G1 X131.816 Y67.660 E0.05091
G1 X132.926 Y68.027 E0.05465
G1 X133.916 Y68.583 E0.05306
G1 X134.781 Y69.314 E0.05297
G1 X135.492 Y70.194 E0.05284
G1 X136.025 Y71.193 E0.05294
G1 X136.354 Y72.241 E0.05134
G1 X136.485 Y73.370 E0.05313
G1 X136.488 Y157.570 E3.93555
G1 X136.385 Y158.606 E0.04868
G1 X136.099 Y159.624 E0.04942
G1 X135.382 Y160.969 E0.07127
G1 X134.745 Y161.723 E0.04612
G1 X133.971 Y162.380 E0.04746
G1 X132.636 Y163.094 E0.07075
G1 X131.721 Y163.361 E0.04457
G1 X130.749 Y163.477 E0.04576
G1 X100.428 Y163.486 E1.41718
G1 X99.391 Y163.382 E0.04874
G1 X98.373 Y163.097 E0.04940
G1 X97.029 Y162.380 E0.07123
G1 X96.275 Y161.743 E0.04612
G1 X95.618 Y160.969 E0.04747
G1 X94.901 Y159.625 E0.07120
G1 X94.616 Y158.607 E0.04939
G1 X94.512 Y157.570 E0.04873
G1 X94.512 Y73.430 E3.93275
G1 X94.616 Y72.393 E0.04873
G1 X94.873 Y71.472 E0.04467
G1 X95.211 Y71.568 F9000.000
G1 F1800.000
G1 X95.234 Y71.489 E0.00382
G1 X95.899 Y70.243 E0.06601
G1 X96.514 Y69.516 E0.04455
G1 X97.242 Y68.900 E0.04454
G1 X98.479 Y68.239 E0.06557
G1 X99.361 Y67.981 E0.04297
G1 X100.281 Y67.873 E0.04328
G1 X130.703 Y67.873 E1.42195
G1 X131.723 Y68.000 E0.04805
G1 X132.770 Y68.342 E0.05149
G1 X133.703 Y68.863 E0.04994
G1 X134.519 Y69.549 E0.04986
G1 X135.190 Y70.375 E0.04973
G1 X135.695 Y71.314 E0.04983
G1 X136.014 Y72.330 E0.04976
G1 X136.135 Y73.400 E0.05032
G1 X136.137 Y157.561 E3.93375
G1 X136.037 Y158.555 E0.04671
G1 X135.767 Y159.510 E0.04639
G1 X135.101 Y160.757 E0.06604
G1 X134.486 Y161.484 E0.04455
G1 X133.758 Y162.100 E0.04454
G1 X132.520 Y162.762 E0.06562
G1 X131.637 Y163.019 E0.04302
G1 X130.718 Y163.127 E0.04323
G1 X100.437 Y163.135 E1.41534
G1 X99.442 Y163.035 E0.04677
G1 X98.487 Y162.764 E0.04636
G1 X97.241 Y162.099 E0.06601
G1 X96.514 Y161.484 E0.04455
G1 X95.898 Y160.756 E0.04454
G1 X95.234 Y159.511 E0.06599
G1 X94.963 Y158.556 E0.04636
G1 X94.863 Y157.561 E0.04676
G1 X94.863 Y73.439 E3.93192
G1 X94.963 Y72.444 E0.04676
G1 X95.195 Y71.626 E0.03973
G1 X95.870 Y71.819 F9000.000
G1 F1800.000
G1 X95.899 Y71.719 E0.00488
G1 X96.460 Y70.668 E0.05567
G1 X97.010 Y70.013 E0.04000
G1 X97.666 Y69.462 E0.04002
G1 X98.711 Y68.903 E0.05542
G1 X99.500 Y68.670 E0.03845
G1 X100.341 Y68.574 E0.03954
G1 X130.641 Y68.573 E1.41623
G1 X131.541 Y68.679 E0.04236
G1 X132.461 Y68.974 E0.04516
G1 X133.278 Y69.424 E0.04361
G1 X134.019 Y70.042 E0.04510
G1 X134.604 Y70.763 E0.04341
G1 X135.059 Y71.615 E0.04512
G1 X135.332 Y72.504 E0.04349
G1 X135.434 Y73.456 E0.04477
G1 X135.434 Y157.543 E3.93030
G1 X135.346 Y158.424 E0.04135
G1 X135.101 Y159.282 E0.04170
G1 X134.540 Y160.332 E0.05567
G1 X133.990 Y160.987 E0.04000
G1 X133.334 Y161.538 E0.04002
G1 X132.288 Y162.098 E0.05547
G1 X131.498 Y162.330 E0.03850
G1 X130.658 Y162.426 E0.03949
G1 X100.455 Y162.432 E1.41173
G1 X99.574 Y162.344 E0.04136
G1 X98.716 Y162.099 E0.04170
G1 X97.666 Y161.538 E0.05566
G1 X97.011 Y160.988 E0.04000
G1 X96.460 Y160.332 E0.04002
G1 X95.899 Y159.281 E0.05568
G1 X95.654 Y158.424 E0.04170
G1 X95.566 Y157.543 E0.04135
G1 X95.566 Y73.457 E3.93028
G1 X95.654 Y72.576 E0.04135
G1 X95.854 Y71.877 E0.03402
G1 X96.231 Y71.834 F9000.000
G1 F1800.000
G1 X96.741 Y70.879 E0.05060
G1 X97.249 Y70.272 E0.03700
G1 X97.878 Y69.743 E0.03843
G1 X98.828 Y69.235 E0.05035
G1 X99.585 Y69.012 E0.03688
G1 X100.370 Y68.924 E0.03693
G1 X130.611 Y68.923 E1.41349
G1 X131.451 Y69.019 E0.03954
G1 X132.307 Y69.290 E0.04194
G1 X133.093 Y69.723 E0.04197
G1 X133.779 Y70.300 E0.04188
G1 X134.320 Y70.970 E0.04026
G1 X134.740 Y71.763 E0.04196
G1 X134.991 Y72.589 E0.04034
G1 X135.083 Y73.465 E0.04116
G1 X135.083 Y157.534 E3.92946
G1 X134.999 Y158.372 E0.03936
G1 X134.769 Y159.166 E0.03862
G1 X134.259 Y160.121 E0.05060
G1 X133.751 Y160.728 E0.03700
G1 X133.122 Y161.257 E0.03843
G1 X132.171 Y161.766 E0.05039
G1 X131.413 Y161.989 E0.03693
G1 X130.629 Y162.076 E0.03689
G1 X100.464 Y162.081 E1.40996
G1 X99.626 Y161.997 E0.03936
G1 X98.832 Y161.767 E0.03862
G1 X97.877 Y161.257 E0.05060
G1 X97.270 Y160.749 E0.03700
G1 X96.741 Y160.120 E0.03843
G1 X96.231 Y159.166 E0.05056
G1 X96.001 Y158.372 E0.03862
G1 X95.917 Y157.534 E0.03936
G1 X95.917 Y73.466 E3.92944
G1 X96.001 Y72.628 E0.03936
G1 X96.214 Y71.892 E0.03581
G1 X96.552 Y71.989 F9000.000
G1 F1800.000
G1 X97.022 Y71.091 E0.04741
G1 X97.508 Y70.509 E0.03540
G1 X98.089 Y70.024 E0.03539
G1 X98.945 Y69.566 E0.04539
G1 X99.640 Y69.359 E0.03386
G1 X100.399 Y69.274 E0.03572
G1 X130.582 Y69.273 E1.41077
G1 X131.363 Y69.360 E0.03673
G1 X132.154 Y69.607 E0.03874
G1 X132.882 Y70.004 E0.03875
G1 X133.518 Y70.535 E0.03871
G1 X134.019 Y71.151 E0.03711
G1 X134.409 Y71.882 E0.03875
G1 X134.650 Y72.675 E0.03872
G1 X134.732 Y73.474 E0.03754
G1 X134.732 Y157.526 E3.92866
G1 X134.656 Y158.290 E0.03590
G1 X134.437 Y159.051 E0.03700
G1 X133.978 Y159.909 E0.04551
G1 X133.492 Y160.491 E0.03540
G1 X132.911 Y160.976 E0.03539
G1 X132.055 Y161.434 E0.04537
G1 X131.330 Y161.647 E0.03534
G1 X130.601 Y161.726 E0.03425
G1 X100.472 Y161.730 E1.40826
G1 X99.708 Y161.655 E0.03590
G1 X98.947 Y161.435 E0.03700
G1 X98.089 Y160.976 E0.04551
G1 X97.507 Y160.490 E0.03540
G1 X97.022 Y159.909 E0.03539
G1 X96.563 Y159.051 E0.04548
G1 X96.344 Y158.290 E0.03699
G1 X96.268 Y157.526 E0.03590
G1 X96.268 Y73.474 E3.92866
G1 X96.343 Y72.710 E0.03590
G1 X96.535 Y72.047 E0.03225
G1 X96.872 Y72.146 F9000.000
G1 F1800.000
G1 X96.895 Y72.066 E0.00389
G1 X97.304 Y71.301 E0.04054
G1 X97.746 Y70.768 E0.03233
G1 X98.300 Y70.305 E0.03378
G1 X99.063 Y69.898 E0.04040
G1 X99.724 Y69.700 E0.03227
G1 X100.427 Y69.624 E0.03304
G1 X130.554 Y69.623 E1.40817
G1 X131.277 Y69.701 E0.03394
G1 X132.003 Y69.925 E0.03553
G1 X132.672 Y70.286 E0.03553
G1 X133.257 Y70.771 E0.03555
G1 X133.718 Y71.333 E0.03396
G1 X134.079 Y72.003 E0.03555
G1 X134.302 Y72.729 E0.03551
G1 X134.380 Y73.483 E0.03545
G1 X134.380 Y157.517 E3.92782
G1 X134.309 Y158.239 E0.03390
G1 X134.105 Y158.934 E0.03387
G1 X133.696 Y159.699 E0.04054
G1 X133.254 Y160.232 E0.03233
G1 X132.700 Y160.695 E0.03378
G1 X131.937 Y161.102 E0.04040
G1 X131.276 Y161.300 E0.03227
G1 X130.573 Y161.376 E0.03304
G1 X100.481 Y161.378 E1.40653
G1 X99.759 Y161.307 E0.03390
G1 X99.064 Y161.103 E0.03387
G1 X98.299 Y160.694 E0.04054
G1 X97.766 Y160.252 E0.03233
G1 X97.303 Y159.698 E0.03378
G1 X96.895 Y158.934 E0.04045
G1 X96.691 Y158.239 E0.03387
G1 X96.620 Y157.517 E0.03390
G1 X96.620 Y73.483 E3.92784
G1 X96.691 Y72.761 E0.03390
G1 X96.855 Y72.203 E0.02717
G1 X97.227 Y72.183 F9000.000
G1 F1800.000
G1 X97.586 Y71.512 E0.03561
G1 X98.005 Y71.006 E0.03072
G1 X98.511 Y70.587 E0.03066
G1 X99.180 Y70.229 E0.03548
G1 X99.809 Y70.042 E0.03066
G1 X100.454 Y69.975 E0.03032
G1 X130.528 Y69.974 E1.40568
G1 X131.191 Y70.042 E0.03117
G1 X131.853 Y70.243 E0.03232
G1 X132.463 Y70.569 E0.03231
G1 X132.997 Y71.008 E0.03231
G1 X133.435 Y71.542 E0.03231
G1 X133.760 Y72.152 E0.03231
G1 X133.961 Y72.814 E0.03230
G1 X134.029 Y73.492 E0.03185
G1 X134.029 Y157.508 E3.92700
G1 X133.961 Y158.187 E0.03187
G1 X133.773 Y158.817 E0.03072
G1 X133.414 Y159.488 E0.03560
G1 X132.995 Y159.994 E0.03072
G1 X132.489 Y160.413 E0.03066
G1 X131.820 Y160.771 E0.03548
G1 X131.191 Y160.958 E0.03066
G1 X130.546 Y161.025 E0.03033
G1 X100.490 Y161.027 E1.40485
G1 X99.811 Y160.959 E0.03187
G1 X99.181 Y160.771 E0.03072
G1 X98.510 Y160.412 E0.03560
G1 X98.004 Y159.993 E0.03072
G1 X97.585 Y159.487 E0.03066
G1 X97.227 Y158.817 E0.03554
G1 X97.039 Y158.187 E0.03072
G1 X96.971 Y157.508 E0.03187
G1 X96.971 Y73.492 E3.92700
G1 X97.039 Y72.813 E0.03187
G1 X97.210 Y72.241 E0.02791
G1 X97.546 Y72.341 F9000.000
G1 F1800.000
G1 X97.868 Y71.722 E0.03259
G1 X98.265 Y71.243 E0.02909
G1 X98.720 Y70.870 E0.02751
G1 X99.299 Y70.560 E0.03069
G1 X99.862 Y70.389 E0.02751
