; generated by PrusaSlicer 2.3.0+linux-x64 on 2021-04-10 at 16:20:30 UTC

; 

; external perimeters extrusion width = 0.45mm
; perimeters extrusion width = 0.45mm
; infill extrusion width = 0.45mm
; solid infill extrusion width = 0.45mm
; top infill extrusion width = 0.45mm
; first layer extrusion width = 0.42mm

M201 X500 Y500 Z100 E5000 ; sets maximum accelerations, mm/sec^2
M203 X500 Y500 Z10 E60 ; sets maximum feedrates, mm/sec
M204 P500 R1000 T500 ; sets acceleration (P, T) and retract acceleration (R), mm/sec^2
M205 X8.00 Y8.00 Z0.40 E5.00 ; sets the jerk limits, mm/sec
M205 S0 T0 ; sets the minimum extruding and travel feed rate, mm/sec
M107
;TYPE:Custom
G90 ; use absolute coordinates
M83 ; extruder relative mode
M104 S215 ; set extruder temp
M140 S60 ; set bed temp
M190 S60 ; wait for bed temp
M109 S215 ; wait for extruder temp
G28 ; home all
G1 Z2 F240
G1 X2 Y10 F3000
G1 Z0.28 F240
G92 E0
G1 Y190 E15 F1500 ; intro line
G1 X2.3 F5000
G92 E0
G1 Y10 E15 F1200 ; intro line
G92 E0
G21 ; set units to millimeters
G90 ; use absolute coordinates
M83 ; use relative distances for extrusion
; Filament gcode
;LAYER_CHANGE
;Z:0.32
;HEIGHT:0.32
;BEFORE_LAYER_CHANGE
G92 E0
;0.32


G1 E-5.00000 F3600.000
G1 Z0.500 F9000.000
;AFTER_LAYER_CHANGE
;0.32
G1 X98.454 Y68.554
G1 Z0.320
G1 E5.00000 F2400.000
;TYPE:Skirt
;WIDTH:0.42
G1 F1800.000
G1 X99.682 Y68.218 E0.05954
G1 X100.494 Y68.149 E0.03810
G1 X130.506 Y68.149 E1.40275
G1 X131.546 Y68.252 E0.04887
G1 X132.547 Y68.555 E0.04886
G1 X133.469 Y69.046 E0.04885
G1 X134.267 Y69.698 E0.04815
G1 X134.943 Y70.515 E0.04956
G1 X135.433 Y71.421 E0.04815
G1 X135.744 Y72.423 E0.04903
G1 X135.850 Y73.372 E0.04462
G1 X135.853 Y157.511 E3.93276
G1 X135.756 Y158.514 E0.04710
G1 X135.501 Y159.403 E0.04321
G1 X134.847 Y160.617 E0.06447
G1 X134.272 Y161.297 E0.04161
G1 X133.537 Y161.907 E0.04462
G1 X132.386 Y162.505 E0.06062
G1 X131.549 Y162.748 E0.04073
G1 X130.698 Y162.843 E0.04002
G1 X100.471 Y162.851 E1.41283
G1 X99.480 Y162.753 E0.04658
G1 X98.595 Y162.499 E0.04303
G1 X97.378 Y161.843 E0.06465
G1 X96.698 Y161.268 E0.04161
G1 X96.078 Y160.517 E0.04551
G1 X95.485 Y159.359 E0.06080
G1 X95.245 Y158.521 E0.04073
G1 X95.148 Y157.579 E0.04427
G1 X95.147 Y73.489 E3.93046
G1 X95.244 Y72.486 E0.04710
G1 X95.499 Y71.597 E0.04321
G1 X96.137 Y70.404 E0.06325
G1 X96.706 Y69.724 E0.04144
G1 X97.354 Y69.176 E0.03967
G1 X98.402 Y68.584 E0.05623
G1 E-3.50000 F3600.000
;WIPE_START
G1 F7200.000
G1 X99.682 Y68.218 E-0.63270
G1 X100.494 Y68.149 E-0.38719
G1 X101.347 Y68.149 E-0.40511
;WIPE_END
G1 E-0.07500 F3600.000
G1 Z0.820 F9000.000
G1 X94.132 Y69.093
G1 Z0.320
G1 E5.00000 F2400.000
G1 F1800.000
G1 X95.066 Y67.982 E0.06784
G1 X96.088 Y67.136 E0.06200
G1 X97.650 Y66.300 E0.08282
G1 X99.001 Y65.904 E0.06580
G1 X100.178 Y65.768 E0.05541
G1 X130.823 Y65.768 E1.43236
G1 X132.244 Y65.956 E0.06699
G1 X133.635 Y66.420 E0.06854
G1 X134.882 Y67.115 E0.06672
G1 X136.002 Y68.050 E0.06821
G1 X136.909 Y69.154 E0.06677
G1 X137.612 Y70.435 E0.06829
G1 X138.061 Y71.826 E0.06833
G1 X138.237 Y73.237 E0.06648
G1 X138.245 Y157.614 E3.94383
G1 X138.114 Y158.918 E0.06126
G1 X137.766 Y160.189 E0.06158
G1 X136.781 Y162.035 E0.09780
G1 X135.977 Y162.975 E0.05781
G1 X135.038 Y163.779 E0.05779
G1 X133.212 Y164.756 E0.09677
G1 X132.085 Y165.079 E0.05483
G1 X130.908 Y165.227 E0.05545
G1 X100.385 Y165.243 E1.42665
G1 X99.082 Y165.112 E0.06123
G1 X97.810 Y164.764 E0.06161
G1 X95.963 Y163.779 E0.09783
G1 X95.024 Y162.975 E0.05781
G1 X94.219 Y162.035 E0.05783
G1 X93.234 Y160.189 E0.09783
G1 X92.886 Y158.918 E0.06158
G1 X92.755 Y157.614 E0.06125
G1 X92.755 Y73.386 E3.93687
G1 X92.886 Y72.082 E0.06125
G1 X93.234 Y70.812 E0.06156
G1 X94.104 Y69.146 E0.08783
G1 X94.415 Y69.310 F9000.000
G1 F1800.000
G1 X95.303 Y68.242 E0.06489
G1 X96.269 Y67.437 E0.05878
G1 X97.800 Y66.618 E0.08112
G1 X99.056 Y66.251 E0.06119
G1 X100.189 Y66.119 E0.05330
G1 X130.811 Y66.119 E1.43133
G1 X132.181 Y66.302 E0.06456
G1 X133.507 Y66.747 E0.06541
G1 X134.695 Y67.413 E0.06366
G1 X135.763 Y68.309 E0.06515
G1 X136.627 Y69.363 E0.06371
G1 X137.295 Y70.588 E0.06521
G1 X137.722 Y71.917 E0.06523
G1 X137.887 Y73.269 E0.06367
G1 X137.894 Y157.605 E3.94193
G1 X137.766 Y158.867 E0.05931
G1 X137.432 Y160.076 E0.05861
G1 X136.502 Y161.821 E0.09242
G1 X135.719 Y162.736 E0.05626
G1 X134.824 Y163.499 E0.05498
G1 X133.098 Y164.423 E0.09153
G1 X132.001 Y164.738 E0.05331
G1 X130.875 Y164.877 E0.05303
G1 X100.394 Y164.892 E1.42473
G1 X99.132 Y164.764 E0.05928
G1 X97.923 Y164.431 E0.05864
G1 X96.177 Y163.500 E0.09248
G1 X95.282 Y162.736 E0.05499
G1 X94.499 Y161.821 E0.05628
G1 X93.568 Y160.076 E0.09245
G1 X93.234 Y158.867 E0.05861
G1 X93.106 Y157.605 E0.05931
G1 X93.106 Y73.395 E3.93604
G1 X93.234 Y72.133 E0.05931
G1 X93.568 Y70.924 E0.05861
G1 X94.387 Y69.363 E0.08241
G1 X94.698 Y69.527 F9000.000
G1 F1800.000
G1 X94.736 Y69.455 E0.00381
G1 X95.541 Y68.502 E0.05829
G1 X96.451 Y67.738 E0.05555
G1 X97.949 Y66.937 E0.07941
G1 X99.112 Y66.598 E0.05659
G1 X100.199 Y66.470 E0.05118
G1 X130.800 Y66.471 E1.43029
G1 X132.117 Y66.648 E0.06211
G1 X133.379 Y67.075 E0.06227
G1 X134.508 Y67.711 E0.06060
G1 X135.524 Y68.567 E0.06208
G1 X136.344 Y69.572 E0.06065
G1 X136.978 Y70.741 E0.06214
G1 X137.382 Y72.007 E0.06213
G1 X137.537 Y73.300 E0.06087
G1 X137.542 Y157.596 E3.94006
G1 X137.423 Y158.788 E0.05600
G1 X137.099 Y159.964 E0.05700
G1 X136.222 Y161.608 E0.08707
G1 X135.480 Y162.477 E0.05342
G1 X134.610 Y163.219 E0.05344
G1 X132.982 Y164.091 E0.08632
G1 X131.944 Y164.391 E0.05051
G1 X130.843 Y164.527 E0.05187
G1 X100.403 Y164.540 E1.42281
G1 X99.211 Y164.421 E0.05597
G1 X98.035 Y164.097 E0.05703
G1 X96.390 Y163.220 E0.08711
G1 X95.520 Y162.478 E0.05344
G1 X94.778 Y161.608 E0.05345
G1 X93.901 Y159.964 E0.08709
G1 X93.577 Y158.788 E0.05700
G1 X93.458 Y157.596 E0.05600
G1 X93.458 Y73.404 E3.93523
G1 X93.577 Y72.212 E0.05600
G1 X93.901 Y71.036 E0.05701
G1 X94.670 Y69.580 E0.07696
G1 X94.980 Y69.744 F9000.000
G1 F1800.000
G1 X95.037 Y69.636 E0.00571
G1 X95.778 Y68.761 E0.05362
G1 X96.634 Y68.039 E0.05229
G1 X98.099 Y67.255 E0.07767
G1 X99.167 Y66.945 E0.05201
G1 X100.210 Y66.822 E0.04905
G1 X130.788 Y66.822 E1.42926
G1 X132.021 Y66.986 E0.05814
G1 X133.222 Y67.389 E0.05920
G1 X134.295 Y67.991 E0.05753
G1 X135.262 Y68.802 E0.05899
G1 X136.061 Y69.781 E0.05908
G1 X136.661 Y70.893 E0.05903
G1 X137.042 Y72.097 E0.05903
G1 X137.187 Y73.331 E0.05807
G1 X137.191 Y157.587 E3.93822
G1 X137.075 Y158.738 E0.05406
G1 X136.765 Y159.851 E0.05401
G1 X135.942 Y161.395 E0.08177
G1 X135.242 Y162.219 E0.05057
G1 X134.397 Y162.940 E0.05189
G1 X132.867 Y163.759 E0.08110
G1 X131.860 Y164.049 E0.04898
G1 X130.811 Y164.177 E0.04940
G1 X100.411 Y164.189 E1.42091
G1 X99.261 Y164.073 E0.05402
G1 X98.148 Y163.764 E0.05403
G1 X96.603 Y162.940 E0.08181
G1 X95.778 Y162.239 E0.05059
G1 X95.058 Y161.395 E0.05189
G1 X94.235 Y159.851 E0.08176
G1 X93.925 Y158.738 E0.05401
G1 X93.809 Y157.587 E0.05406
G1 X93.809 Y73.413 E3.93439
G1 X93.925 Y72.262 E0.05406
G1 X94.235 Y71.148 E0.05402
G1 X94.952 Y69.797 E0.07151
G1 X94.568 Y71.262 F9000.000
G1 F1800.000
G1 X95.338 Y69.818 E0.07649
G1 X96.017 Y69.019 E0.04901
G1 X96.816 Y68.340 E0.04902
G1 X98.248 Y67.574 E0.07591
G1 X99.223 Y67.292 E0.04744
G1 X100.220 Y67.173 E0.04693
G1 X130.754 Y67.172 E1.42718
G1 X131.926 Y67.325 E0.05526
G1 X133.065 Y67.704 E0.05607
G1 X134.109 Y68.289 E0.05596
G1 X135.023 Y69.060 E0.05587
G1 X135.778 Y69.989 E0.05598
G1 X136.344 Y71.044 E0.05592
G1 X136.701 Y72.186 E0.05593
G1 X136.836 Y73.361 E0.05529
G1 X136.840 Y157.578 E3.93640
G1 X136.727 Y158.687 E0.05209
G1 X136.432 Y159.738 E0.05100
G1 X135.662 Y161.182 E0.07649
G1 X134.983 Y161.981 E0.04901
G1 X134.184 Y162.660 E0.04902
G1 X132.752 Y163.426 E0.07591
G1 X131.777 Y163.708 E0.04744
G1 X130.780 Y163.827 E0.04693
G1 X100.420 Y163.838 E1.41904
G1 X99.312 Y163.725 E0.05206
G1 X98.261 Y163.431 E0.05103
G1 X96.816 Y162.660 E0.07653
G1 X96.017 Y161.981 E0.04903
G1 X95.338 Y161.182 E0.04901
G1 X94.568 Y159.738 E0.07649
G1 X94.273 Y158.687 E0.05100
G1 X94.160 Y157.578 E0.05209
G1 X94.160 Y73.422 E3.93356
G1 X94.273 Y72.313 E0.05209
G1 X94.551 Y71.320 E0.04820
G1 X94.890 Y71.415 F9000.000
G1 F1800.000
G1 X95.618 Y70.031 E0.07310
G1 X96.255 Y69.277 E0.04612
G1 X97.029 Y68.620 E0.04746
G1 X98.364 Y67.906 E0.07076
G1 X99.280 Y67.639 E0.04457
G1 X100.251 Y67.523 E0.04576
G1 X130.742 Y67.523 E1.42517
G1 X131.863 Y67.671 E0.05284
G1 X132.936 Y68.032 E0.05292
G1 X133.922 Y68.587 E0.05286
G1 X134.783 Y69.317 E0.05277
G1 X135.494 Y70.197 E0.05288
G1 X136.026 Y71.194 E0.05282
G1 X136.361 Y72.273 E0.05283
G1 X136.486 Y73.390 E0.05252
G1 X136.488 Y157.570 E3.93463
G1 X136.384 Y158.607 E0.04873
G1 X136.099 Y159.625 E0.04939
G1 X135.382 Y160.969 E0.07123
G1 X134.745 Y161.723 E0.04612
G1 X133.971 Y162.380 E0.04746
G1 X132.636 Y163.094 E0.07076
G1 X131.720 Y163.361 E0.04457
G1 X130.749 Y163.477 E0.04575
G1 X100.429 Y163.486 E1.41717
G1 X99.392 Y163.383 E0.04869
G1 X98.374 Y163.098 E0.04942
G1 X97.029 Y162.380 E0.07124
G1 X96.255 Y161.723 E0.04747
G1 X95.618 Y160.969 E0.04612
G1 X94.901 Y159.625 E0.07123
G1 X94.616 Y158.607 E0.04939
G1 X94.512 Y157.570 E0.04873
G1 X94.512 Y73.430 E3.93275
G1 X94.616 Y72.393 E0.04873
G1 X94.874 Y71.472 E0.04468
G1 X95.211 Y71.568 F9000.000
G1 F1800.000
G1 X95.234 Y71.489 E0.00382
G1 X95.899 Y70.243 E0.06601
G1 X96.514 Y69.516 E0.04455
G1 X97.242 Y68.900 E0.04454
G1 X98.480 Y68.238 E0.06563
G1 X99.363 Y67.981 E0.04302
G1 X100.282 Y67.873 E0.04323
G1 X130.709 Y67.873 E1.42218
G1 X131.769 Y68.010 E0.04995
G1 X132.780 Y68.347 E0.04980
G1 X133.708 Y68.867 E0.04976
G1 X134.521 Y69.551 E0.04963
G1 X135.210 Y70.404 E0.05128
G1 X135.707 Y71.343 E0.04967
G1 X136.020 Y72.360 E0.04973
G1 X136.136 Y73.419 E0.04976
G1 X136.137 Y157.561 E3.93288
G1 X136.037 Y158.556 E0.04677
G1 X135.766 Y159.511 E0.04636
G1 X135.101 Y160.757 E0.06601
G1 X134.486 Y161.484 E0.04455
G1 X133.758 Y162.100 E0.04454
G1 X132.520 Y162.762 E0.06563
G1 X131.637 Y163.019 E0.04302
G1 X130.718 Y163.127 E0.04323
G1 X100.438 Y163.135 E1.41533
G1 X99.443 Y163.035 E0.04672
G1 X98.488 Y162.765 E0.04638
G1 X97.242 Y162.100 E0.06602
G1 X96.514 Y161.484 E0.04454
G1 X95.899 Y160.757 E0.04455
G1 X95.234 Y159.511 E0.06601
G1 X94.963 Y158.556 E0.04636
G1 X94.863 Y157.561 E0.04677
G1 X94.863 Y73.439 E3.93192
G1 X94.963 Y72.444 E0.04677
G1 X95.195 Y71.626 E0.03973
G1 X95.870 Y71.819 F9000.000
G1 F1800.000
G1 X95.899 Y71.718 E0.00488
G1 X96.460 Y70.668 E0.05567
G1 X97.010 Y70.013 E0.04000
G1 X97.666 Y69.462 E0.04002
G1 X98.712 Y68.902 E0.05547
G1 X99.502 Y68.670 E0.03850
G1 X100.342 Y68.574 E0.03949
G1 X130.644 Y68.573 E1.41636
G1 X131.583 Y68.688 E0.04421
G1 X132.467 Y68.977 E0.04348
G1 X133.309 Y69.445 E0.04500
G1 X134.018 Y70.042 E0.04332
G1 X134.623 Y70.790 E0.04499
G1 X135.058 Y71.611 E0.04342
G1 X135.331 Y72.501 E0.04350
G1 X135.434 Y73.456 E0.04490
G1 X135.434 Y157.543 E3.93031
G1 X135.346 Y158.424 E0.04135
G1 X135.101 Y159.282 E0.04170
G1 X134.540 Y160.332 E0.05567
G1 X133.990 Y160.987 E0.04000
G1 X133.334 Y161.538 E0.04002
G1 X132.288 Y162.098 E0.05547
G1 X131.498 Y162.330 E0.03850
G1 X130.658 Y162.426 E0.03949
G1 X100.455 Y162.432 E1.41173
G1 X99.574 Y162.344 E0.04136
G1 X98.717 Y162.099 E0.04170
G1 X97.666 Y161.538 E0.05568
G1 X97.010 Y160.987 E0.04002
G1 X96.460 Y160.332 E0.04000
G1 X95.899 Y159.282 E0.05567
G1 X95.654 Y158.424 E0.04170
G1 X95.566 Y157.543 E0.04135
G1 X95.566 Y73.457 E3.93028
G1 X95.654 Y72.576 E0.04135
G1 X95.854 Y71.876 E0.03402
G1 X96.231 Y71.834 F9000.000
G1 F1800.000
G1 X96.741 Y70.879 E0.05060
G1 X97.249 Y70.272 E0.03700
G1 X97.878 Y69.743 E0.03843
G1 X98.829 Y69.234 E0.05040
G1 X99.587 Y69.011 E0.03693
G1 X100.371 Y68.924 E0.03688
G1 X130.613 Y68.923 E1.41356
G1 X131.492 Y69.028 E0.04135
G1 X132.313 Y69.293 E0.04033
G1 X133.097 Y69.726 E0.04185
G1 X133.756 Y70.277 E0.04018
G1 X134.321 Y70.971 E0.04184
G1 X134.727 Y71.731 E0.04026
G1 X134.991 Y72.588 E0.04189
G1 X135.083 Y73.465 E0.04123
G1 X135.083 Y157.534 E3.92948
G1 X134.999 Y158.372 E0.03936
G1 X134.769 Y159.166 E0.03862
G1 X134.259 Y160.121 E0.05060
G1 X133.751 Y160.728 E0.03700
G1 X133.122 Y161.257 E0.03843
G1 X132.171 Y161.766 E0.05040
G1 X131.413 Y161.989 E0.03693
G1 X130.629 Y162.076 E0.03688
G1 X100.464 Y162.081 E1.40996
G1 X99.626 Y161.997 E0.03936
G1 X98.832 Y161.767 E0.03862
G1 X97.878 Y161.257 E0.05056
G1 X97.249 Y160.728 E0.03843
G1 X96.741 Y160.121 E0.03700
G1 X96.231 Y159.166 E0.05060
G1 X96.001 Y158.372 E0.03862
G1 X95.917 Y157.534 E0.03936
G1 X95.917 Y73.466 E3.92944
G1 X96.001 Y72.628 E0.03936
G1 X96.214 Y71.892 E0.03581
G1 X96.552 Y71.989 F9000.000
G1 F1800.000
G1 X97.022 Y71.091 E0.04741
G1 X97.508 Y70.509 E0.03540
G1 X98.089 Y70.024 E0.03539
G1 X98.945 Y69.566 E0.04538
G1 X99.670 Y69.353 E0.03534
G1 X100.399 Y69.274 E0.03424
G1 X130.583 Y69.273 E1.41085
G1 X131.402 Y69.368 E0.03852
G1 X132.160 Y69.609 E0.03717
G1 X132.886 Y70.007 E0.03871
G1 X133.496 Y70.513 E0.03703
G1 X134.020 Y71.153 E0.03869
G1 X134.397 Y71.852 E0.03711
G1 X134.643 Y72.642 E0.03868
G1 X134.732 Y73.474 E0.03910
G1 X134.732 Y157.526 E3.92864
G1 X134.656 Y158.290 E0.03590
G1 X134.437 Y159.051 E0.03699
G1 X133.978 Y159.909 E0.04551
G1 X133.492 Y160.491 E0.03540
G1 X132.911 Y160.976 E0.03539
G1 X132.055 Y161.434 E0.04538
G1 X131.330 Y161.647 E0.03534
G1 X130.601 Y161.726 E0.03424
G1 X100.472 Y161.730 E1.40826
G1 X99.708 Y161.654 E0.03590
G1 X98.947 Y161.435 E0.03699
G1 X98.089 Y160.976 E0.04548
G1 X97.508 Y160.491 E0.03539
G1 X97.022 Y159.909 E0.03541
G1 X96.563 Y159.051 E0.04551
G1 X96.344 Y158.290 E0.03699
G1 X96.268 Y157.526 E0.03590
G1 X96.268 Y73.474 E3.92866
G1 X96.344 Y72.710 E0.03590
G1 X96.535 Y72.047 E0.03225
G1 X96.872 Y72.146 F9000.000
G1 F1800.000
G1 X96.895 Y72.066 E0.00389
G1 X97.304 Y71.301 E0.04054
G1 X97.746 Y70.768 E0.03233
G1 X98.300 Y70.305 E0.03378
G1 X99.063 Y69.898 E0.04040
G1 X99.724 Y69.700 E0.03227
G1 X100.427 Y69.624 E0.03304
G1 X130.574 Y69.624 E1.40907
G1 X131.312 Y69.708 E0.03473
G1 X132.036 Y69.939 E0.03553
G1 X132.701 Y70.306 E0.03549
G1 X133.257 Y70.771 E0.03388
G1 X133.737 Y71.361 E0.03555
G1 X134.079 Y72.002 E0.03396
G1 X134.302 Y72.729 E0.03553
G1 X134.380 Y73.483 E0.03545
G1 X134.380 Y157.517 E3.92782
G1 X134.309 Y158.239 E0.03390
G1 X134.105 Y158.934 E0.03387
G1 X133.696 Y159.699 E0.04054
G1 X133.254 Y160.232 E0.03233
G1 X132.700 Y160.695 E0.03378
G1 X131.937 Y161.102 E0.04040
G1 X131.276 Y161.300 E0.03227
G1 X130.573 Y161.376 E0.03304
G1 X100.481 Y161.378 E1.40653
G1 X99.759 Y161.307 E0.03390
G1 X99.064 Y161.103 E0.03387
G1 X98.300 Y160.695 E0.04045
G1 X97.746 Y160.232 E0.03378
G1 X97.304 Y159.699 E0.03233
G1 X96.895 Y158.934 E0.04054
G1 X96.691 Y158.239 E0.03387
G1 X96.620 Y157.517 E0.03390
G1 X96.620 Y73.483 E3.92784
G1 X96.691 Y72.761 E0.03390
G1 X96.855 Y72.203 E0.02717
G1 X97.227 Y72.183 F9000.000
G1 F1800.000
G1 X97.586 Y71.512 E0.03560
G1 X98.005 Y71.006 E0.03072
G1 X98.511 Y70.587 E0.03066
G1 X99.180 Y70.229 E0.03548
G1 X99.809 Y70.042 E0.03066
G1 X100.454 Y69.975 E0.03032
G1 X130.546 Y69.975 E1.40650
G1 X131.224 Y70.048 E0.03189
G1 X131.883 Y70.256 E0.03231
G1 X132.490 Y70.588 E0.03233
G1 X132.996 Y71.007 E0.03074
G1 X133.435 Y71.542 E0.03233
G1 X133.760 Y72.152 E0.03231
G1 X133.961 Y72.814 E0.03231
G1 X134.029 Y73.492 E0.03185
G1 X134.029 Y157.508 E3.92700
G1 X133.961 Y158.187 E0.03187
G1 X133.773 Y158.817 E0.03072
G1 X133.414 Y159.488 E0.03560
G1 X132.995 Y159.994 E0.03072
G1 X132.489 Y160.413 E0.03066
G1 X131.820 Y160.771 E0.03548
G1 X131.191 Y160.958 E0.03066
G1 X130.546 Y161.025 E0.03032
G1 X100.490 Y161.027 E1.40486
G1 X99.811 Y160.959 E0.03187
G1 X99.181 Y160.771 E0.03072
G1 X98.511 Y160.413 E0.03554
G1 X98.005 Y159.994 E0.03066
G1 X97.586 Y159.488 E0.03072
G1 X97.227 Y158.817 E0.03560
G1 X97.039 Y158.187 E0.03072
G1 X96.971 Y157.508 E0.03187
G1 X96.971 Y73.492 E3.92700
G1 X97.039 Y72.813 E0.03187
G1 X97.210 Y72.241 E0.02791
G1 X97.546 Y72.341 F9000.000
G1 F1800.000
G1 X97.868 Y71.722 E0.03259
G1 X98.265 Y71.243 E0.02909
G1 X98.720 Y70.870 E0.02751
G1 X99.299 Y70.560 E0.03070
G1 X99.862 Y70.389 E0.02751
