; generated by PrusaSlicer 2.3.0+linux-x64 on 2021-04-11 at 06:46:48 UTC

; 

; external perimeters extrusion width = 0.45mm
; perimeters extrusion width = 0.45mm
; infill extrusion width = 0.45mm
; solid infill extrusion width = 0.45mm
; top infill extrusion width = 0.45mm
; support material extrusion width = 0.38mm
; first layer extrusion width = 0.42mm

M201 X500 Y500 Z100 E5000 ; sets maximum accelerations, mm/sec^2
M203 X500 Y500 Z10 E60 ; sets maximum feedrates, mm/sec
M204 P500 R1000 T500 ; sets acceleration (P, T) and retract acceleration (R), mm/sec^2
M205 X8.00 Y8.00 Z0.40 E5.00 ; sets the jerk limits, mm/sec
M205 S0 T0 ; sets the minimum extruding and travel feed rate, mm/sec
M107
;TYPE:Custom
G90 ; use absolute coordinates
M83 ; extruder relative mode
M104 S215 ; set extruder temp
M140 S60 ; set bed temp
M190 S60 ; wait for bed temp
M109 S215 ; wait for extruder temp
G28 ; home all
G1 Z2 F240
G1 X2 Y10 F3000
G1 Z0.28 F240
G92 E0
G1 Y190 E15 F1500 ; intro line
G1 X2.3 F5000
G92 E0
G1 Y10 E15 F1200 ; intro line
G92 E0
G21 ; set units to millimeters
G90 ; use absolute coordinates
M83 ; use relative distances for extrusion
; Filament gcode
;LAYER_CHANGE
;Z:0.32
;HEIGHT:0.32
;BEFORE_LAYER_CHANGE
G92 E0
;0.32


G1 E-5.00000 F3600.000
G1 Z0.500 F9000.000
;AFTER_LAYER_CHANGE
;0.32
G1 X129.429 Y124.134
G1 Z0.320
G1 E5.00000 F2400.000
;TYPE:Skirt
;WIDTH:0.42
G1 F1800.000
G1 X128.505 Y124.326 E0.04414
G1 X102.446 Y124.326 E1.21802
G1 X101.609 Y124.150 E0.03997
G1 X100.887 Y123.684 E0.04015
G1 X100.375 Y122.976 E0.04084
G1 X100.156 Y122.130 E0.04084
G1 X100.152 Y115.480 E0.31085
G1 X100.296 Y114.712 E0.03648
G1 X106.550 Y104.075 E0.57676
G1 X106.927 Y103.657 E0.02632
G1 X107.389 Y103.342 E0.02614
G1 X107.916 Y103.144 E0.02632
G1 X108.475 Y103.077 E0.02632
G1 X122.648 Y103.238 E0.66247
G1 X123.452 Y103.424 E0.03858
G1 X124.142 Y103.877 E0.03858
G1 X124.540 Y104.371 E0.02966
G1 X130.521 Y114.327 E0.54286
G1 X130.745 Y114.835 E0.02597
G1 X130.848 Y115.492 E0.03106
G1 X130.844 Y122.119 E0.30976
G1 X130.655 Y122.911 E0.03805
G1 X130.206 Y123.590 E0.03805
G1 X129.478 Y124.099 E0.04151
G1 E-3.50000 F3600.000
;WIPE_START
G1 F7200.000
G1 X128.505 Y124.326 E-0.47492
G1 X126.505 Y124.326 E-0.95008
;WIPE_END
G1 E-0.07500 F3600.000
G1 Z0.820 F9000.000
G1 X110.158 Y100.680
G1 Z0.320
G1 E5.00000 F2400.000
G1 F1800.000
G1 X108.865 Y100.667 E0.06044
G1 X108.604 Y100.692 E0.01224
G1 X107.912 Y100.682 E0.03236
G1 X106.720 Y100.920 E0.05682
G1 X105.613 Y101.486 E0.05814
G1 X104.658 Y102.351 E0.06020
G1 X103.922 Y103.518 E0.06449
G1 X103.565 Y104.896 E0.06653
G1 X103.558 Y108.817 E0.18328
G1 X103.557 Y109.513 F9000.000
G1 F1800.000
G1 X103.555 Y110.799 E0.06010
G1 X102.798 Y110.803 E0.03536
G1 X102.389 Y110.806 F9000.000
G1 F1800.000
G1 X101.801 Y110.810 E0.02750
G1 X100.419 Y111.228 E0.06747
G1 X99.481 Y111.845 E0.05248
G1 X98.674 Y112.681 E0.05434
G1 X98.004 Y113.925 E0.06604
G1 X97.759 Y115.129 E0.05741
G1 X97.771 Y117.004 E0.08764
G1 X97.965 Y118.114 E0.05266
G1 X98.272 Y118.841 E0.03691
G1 X97.958 Y119.557 E0.03655
G1 X97.774 Y120.612 E0.05003
G1 X97.785 Y122.640 E0.09479
G1 X97.993 Y123.547 E0.04354
G1 X98.395 Y124.413 E0.04461
G1 X99.406 Y125.596 E0.07274
G1 X100.642 Y126.371 E0.06821
G1 X102.056 Y126.718 E0.06801
G1 X128.922 Y126.718 E1.25575
G1 X129.893 Y126.541 E0.04616
G1 X130.839 Y126.142 E0.04796
G1 X132.059 Y125.129 E0.07415
G1 X132.851 Y123.935 E0.06697
G1 X133.225 Y122.588 E0.06532
G1 X133.216 Y120.514 E0.09694
G1 X132.975 Y119.345 E0.05578
G1 X132.732 Y118.820 E0.02708
G1 X132.986 Y118.275 E0.02808
G1 X133.213 Y117.180 E0.05231
G1 X133.174 Y114.577 E0.12168
G1 X132.860 Y113.581 E0.04879
G1 X132.361 Y112.737 E0.04583
G1 X131.386 Y111.735 E0.06532
G1 X130.475 Y111.180 E0.04988
G1 X129.231 Y110.815 E0.06061
G1 X128.611 Y110.807 E0.02896
G1 X128.198 Y110.802 F9000.000
G1 F1800.000
G1 X127.441 Y110.794 E0.03540
G1 X127.435 Y109.533 E0.05894
G1 X127.432 Y108.845 F9000.000
G1 F1800.000
G1 X127.415 Y104.941 E0.18251
G1 X127.132 Y103.807 E0.05460
G1 X126.603 Y102.803 E0.05305
G1 X125.680 Y101.785 E0.06423
G1 X124.174 Y100.937 E0.08080
G1 X122.905 Y100.671 E0.06063
G1 X110.158 Y100.680 E0.59579
G1 X108.872 Y101.018 F9000.000
G1 F1800.000
G1 X108.620 Y101.044 E0.01182
G1 X107.926 Y101.034 E0.03243
G1 X106.814 Y101.259 E0.05302
G1 X105.795 Y101.787 E0.05364
G1 X104.913 Y102.594 E0.05586
G1 X104.235 Y103.680 E0.05988
G1 X103.911 Y104.961 E0.06173
G1 X103.908 Y108.222 E0.15242
G1 X103.908 Y108.916 F9000.000
G1 F1800.000
G1 X103.906 Y111.148 E0.10431
G1 X102.591 Y111.156 E0.06147
G1 X102.182 Y111.159 F9000.000
G1 F1800.000
G1 X101.828 Y111.161 E0.01652
G1 X100.591 Y111.535 E0.06041
G1 X99.691 Y112.128 E0.05036
G1 X98.944 Y112.906 E0.05043
G1 X98.327 Y114.067 E0.06147
G1 X98.111 Y115.144 E0.05135
G1 X98.122 Y116.987 E0.08611
G1 X98.307 Y118.032 E0.04961
G1 X98.657 Y118.844 E0.04133
G1 X98.300 Y119.640 E0.04075
G1 X98.123 Y120.657 E0.04825
G1 X98.131 Y122.580 E0.08989
G1 X98.331 Y123.450 E0.04173
G1 X98.702 Y124.242 E0.04085
G1 X99.655 Y125.346 E0.06818
G1 X100.755 Y126.037 E0.06071
G1 X102.077 Y126.367 E0.06371
G1 X128.906 Y126.367 E1.25397
G1 X129.810 Y126.200 E0.04299
G1 X130.676 Y125.830 E0.04403
G1 X131.814 Y124.876 E0.06939
G1 X132.521 Y123.812 E0.05970
G1 X132.874 Y122.564 E0.06063
G1 X132.868 Y120.568 E0.09331
G1 X132.636 Y119.438 E0.05392
G1 X132.342 Y118.819 E0.03201
G1 X132.646 Y118.182 E0.03300
G1 X132.865 Y117.127 E0.05038
G1 X132.831 Y114.658 E0.11542
G1 X132.531 Y113.707 E0.04662
G1 X132.070 Y112.935 E0.04203
G1 X131.183 Y112.022 E0.05948
G1 X130.353 Y111.510 E0.04559
G1 X129.156 Y111.159 E0.05833
G1 X128.821 Y111.156 E0.01566
G1 X128.409 Y111.153 F9000.000
G1 F1800.000
G1 X127.091 Y111.143 E0.06160
G1 X127.082 Y108.943 E0.10280
G1 X127.079 Y108.256 F9000.000
G1 F1800.000
G1 X127.064 Y104.963 E0.15391
G1 X126.810 Y103.951 E0.04879
G1 X126.326 Y103.020 E0.04905
G1 X125.482 Y102.076 E0.05916
G1 X124.026 Y101.257 E0.07810
G1 X122.853 Y101.019 E0.05597
G1 X110.156 Y101.031 E0.59344
G1 X108.872 Y101.018 E0.06005
G1 X110.155 Y101.382 F9000.000
G1 F1800.000
G1 X108.879 Y101.370 E0.05964
G1 X108.637 Y101.395 E0.01138
G1 X107.941 Y101.385 E0.03254
G1 X106.910 Y101.598 E0.04917
G1 X105.980 Y102.087 E0.04912
G1 X105.170 Y102.835 E0.05154
G1 X104.549 Y103.841 E0.05525
G1 X104.257 Y105.024 E0.05694
G1 X104.257 Y107.628 E0.12175
G1 X104.257 Y108.322 F9000.000
G1 F1800.000
G1 X104.257 Y111.497 E0.14842
G1 X102.384 Y111.509 E0.08759
G1 X101.974 Y111.511 F9000.000
G1 F1800.000
G1 X101.856 Y111.512 E0.00554
G1 X100.763 Y111.843 E0.05336
G1 X99.901 Y112.410 E0.04822
G1 X99.216 Y113.130 E0.04647
G1 X98.650 Y114.208 E0.05689
G1 X98.462 Y115.160 E0.04536
G1 X98.474 Y116.969 E0.08459
G1 X98.649 Y117.949 E0.04652
G1 X99.042 Y118.848 E0.04584
G1 X98.642 Y119.723 E0.04499
G1 X98.472 Y120.702 E0.04645
G1 X98.478 Y122.522 E0.08507
G1 X98.658 Y123.319 E0.03817
G1 X99.010 Y124.070 E0.03878
G1 X99.902 Y125.095 E0.06352
G1 X100.916 Y125.724 E0.05576
G1 X102.098 Y126.015 E0.05693
G1 X128.889 Y126.015 E1.25221
G1 X129.725 Y125.858 E0.03978
G1 X130.513 Y125.518 E0.04009
G1 X131.567 Y124.625 E0.06459
G1 X132.212 Y123.642 E0.05494
G1 X132.523 Y122.540 E0.05353
G1 X132.521 Y120.621 E0.08970
G1 X132.296 Y119.531 E0.05202
G1 X131.950 Y118.819 E0.03700
G1 X132.307 Y118.089 E0.03798
G1 X132.518 Y117.074 E0.04844
G1 X132.488 Y114.739 E0.10915
G1 X132.202 Y113.833 E0.04441
G1 X131.780 Y113.134 E0.03818
G1 X130.978 Y112.309 E0.05378
G1 X130.231 Y111.840 E0.04124
G1 X129.081 Y111.503 E0.05600
G1 X129.029 Y111.503 E0.00243
G1 X128.618 Y111.501 F9000.000
G1 F1800.000
G1 X126.741 Y111.493 E0.08774
G1 X126.730 Y108.358 E0.14655
G1 X126.727 Y107.672 F9000.000
G1 F1800.000
G1 X126.718 Y105.028 E0.12357
G1 X126.475 Y104.057 E0.04679
G1 X126.026 Y103.203 E0.04508
G1 X125.242 Y102.334 E0.05474
G1 X123.880 Y101.577 E0.07279
G1 X122.836 Y101.370 E0.04977
G1 X110.155 Y101.382 E0.59274
G1 X108.886 Y101.721 F9000.000
G1 F1800.000
G1 X108.654 Y101.747 E0.01092
G1 X107.955 Y101.737 E0.03267
G1 X107.007 Y101.937 E0.04530
G1 X106.202 Y102.361 E0.04254
G1 X105.427 Y103.076 E0.04930
G1 X104.863 Y104.000 E0.05057
G1 X104.609 Y105.044 E0.05025
G1 X104.609 Y107.031 E0.09284
G1 X104.609 Y107.724 F9000.000
G1 F1800.000
G1 X104.609 Y111.846 E0.19267
G1 X102.176 Y111.861 E0.11370
G1 X101.742 Y111.906 F9000.000
G1 F1800.000
G1 X100.934 Y112.151 E0.03949
G1 X100.142 Y112.667 E0.04419
G1 X99.488 Y113.354 E0.04432
G1 X98.974 Y114.346 E0.05224
G1 X98.814 Y115.174 E0.03943
G1 X98.825 Y116.952 E0.08307
G1 X98.991 Y117.865 E0.04339
G1 X99.428 Y118.851 E0.05043
G1 X98.984 Y119.807 E0.04926
G1 X98.820 Y120.747 E0.04463
G1 X98.825 Y122.464 E0.08023
G1 X98.996 Y123.222 E0.03634
G1 X99.316 Y123.897 E0.03489
G1 X100.148 Y124.843 E0.05887
G1 X101.075 Y125.410 E0.05081
G1 X102.119 Y125.664 E0.05023
G1 X128.872 Y125.664 E1.25045
G1 X129.639 Y125.517 E0.03651
G1 X130.347 Y125.207 E0.03612
G1 X131.319 Y124.374 E0.05983
G1 X131.882 Y123.519 E0.04785
G1 X132.172 Y122.515 E0.04886
G1 X132.173 Y120.674 E0.08602
G1 X131.957 Y119.625 E0.05009
G1 X131.557 Y118.818 E0.04206
G1 X131.968 Y117.994 E0.04303
G1 X132.170 Y117.021 E0.04646
G1 X132.146 Y114.820 E0.10289
G1 X131.873 Y113.959 E0.04221
G1 X131.514 Y113.364 E0.03247
G1 X130.742 Y112.569 E0.05181
G1 X130.066 Y112.152 E0.03712
G1 X129.280 Y111.920 E0.03832
G1 X128.830 Y111.853 F9000.000
G1 F1800.000
G1 X126.390 Y111.843 E0.11401
G1 X126.379 Y107.775 E0.19018
G1 X126.377 Y107.089 F9000.000
G1 F1800.000
G1 X126.372 Y105.091 E0.09339
G1 X126.154 Y104.201 E0.04282
G1 X125.725 Y103.387 E0.04299
G1 X125.002 Y102.592 E0.05023
G1 X123.736 Y101.899 E0.06746
G1 X122.820 Y101.721 E0.04363
G1 X110.153 Y101.734 E0.59206
G1 X108.886 Y101.721 E0.05921
G1 X110.151 Y102.085 F9000.000
G1 F1800.000
G1 X108.895 Y102.072 E0.05875
G1 X108.673 Y102.099 E0.01044
G1 X107.971 Y102.088 E0.03283
G1 X107.105 Y102.275 E0.04140
G1 X106.423 Y102.634 E0.03602
G1 X105.684 Y103.317 E0.04704
G1 X105.178 Y104.157 E0.04582
G1 X104.960 Y105.065 E0.04364
G1 X104.960 Y106.433 E0.06396
G1 X104.960 Y107.126 F9000.000
G1 F1800.000
G1 X104.960 Y112.195 E0.23691
G1 X101.969 Y112.214 E0.13981
G1 X101.485 Y112.344 F9000.000
G1 F1800.000
G1 X101.103 Y112.460 E0.01866
G1 X100.381 Y112.925 E0.04013
G1 X99.761 Y113.577 E0.04211
G1 X99.298 Y114.483 E0.04751
G1 X99.165 Y115.189 E0.03361
G1 X99.174 Y116.906 E0.08024
G1 X99.321 Y117.742 E0.03971
G1 X99.715 Y118.631 E0.04544
G1 X99.841 Y118.798 E0.00974
G1 X99.313 Y119.933 E0.05852
G1 X99.169 Y120.790 E0.04064
G1 X99.172 Y122.407 E0.07558
G1 X99.322 Y123.090 E0.03266
G1 X99.623 Y123.723 E0.03275
G1 X100.392 Y124.589 E0.05413
G1 X101.232 Y125.095 E0.04586
G1 X102.140 Y125.313 E0.04361
G1 X128.856 Y125.313 E1.24873
G1 X129.517 Y125.187 E0.03145
G1 X130.181 Y124.896 E0.03393
G1 X131.070 Y124.126 E0.05495
G1 X131.573 Y123.350 E0.04321
G1 X131.820 Y122.489 E0.04188
G1 X131.825 Y120.727 E0.08236
G1 X131.617 Y119.719 E0.04812
G1 X131.163 Y118.818 E0.04717
G1 X131.629 Y117.900 E0.04814
G1 X131.822 Y116.968 E0.04447
G1 X131.803 Y114.901 E0.09663
G1 X131.545 Y114.085 E0.04000
G1 X131.248 Y113.595 E0.02677
G1 X130.506 Y112.830 E0.04981
G1 X129.904 Y112.464 E0.03296
G1 X129.542 Y112.357 E0.01761
G1 X129.044 Y112.210 F9000.000
G1 F1800.000
G1 X126.040 Y112.193 E0.14043
G1 X126.030 Y107.193 E0.23372
G1 X126.028 Y106.508 F9000.000
G1 F1800.000
G1 X126.026 Y105.154 E0.06328
G1 X125.818 Y104.307 E0.04079
G1 X125.426 Y103.573 E0.03887
G1 X124.764 Y102.852 E0.04575
G1 X123.594 Y102.221 E0.06212
G1 X122.804 Y102.073 E0.03758
G1 X110.151 Y102.085 E0.59140
G1 X108.904 Y102.424 F9000.000
G1 F1800.000
G1 X108.693 Y102.450 E0.00992
G1 X107.985 Y102.440 E0.03309
G1 X107.244 Y102.598 E0.03540
G1 X106.644 Y102.909 E0.03162
G1 X105.941 Y103.557 E0.04468
G1 X105.495 Y104.312 E0.04101
G1 X105.311 Y105.085 E0.03712
G1 X105.311 Y105.836 E0.03508
G1 X105.311 Y106.529 F9000.000
G1 F1800.000
G1 X105.311 Y112.544 E0.28116
G1 X101.940 Y112.566 E0.15757
G1 X101.722 Y112.634 E0.01069
G1 X101.220 Y112.795 F9000.000
G1 F1800.000
G1 X100.622 Y113.182 E0.03329
G1 X100.033 Y113.800 E0.03990
G1 X99.624 Y114.617 E0.04270
G1 X99.516 Y115.204 E0.02789
G1 X99.522 Y116.862 E0.07750
G1 X99.651 Y117.620 E0.03597
G1 X99.978 Y118.357 E0.03767
G1 X99.979 Y119.311 F9000.000
G1 F1800.000
G1 X99.656 Y120.015 E0.03617
G1 X99.520 Y120.806 E0.03752
G1 X99.520 Y122.353 E0.07233
G1 X99.649 Y122.958 E0.02892
G1 X99.929 Y123.549 E0.03054
G1 X100.634 Y124.333 E0.04930
G1 X101.387 Y124.778 E0.04090
G1 X102.160 Y124.961 E0.03710
G1 X128.838 Y124.961 E1.24698
G1 X129.429 Y124.846 E0.02813
G1 X130.014 Y124.586 E0.02990
G1 X130.820 Y123.878 E0.05015
G1 X131.244 Y123.226 E0.03637
G1 X131.469 Y122.462 E0.03724
G1 X131.477 Y120.780 E0.07861
G1 X131.278 Y119.814 E0.04611
G1 X131.022 Y119.314 E0.02626
G1 X131.022 Y118.322 F9000.000
G1 F1800.000
G1 X131.290 Y117.804 E0.02726
G1 X131.474 Y116.915 E0.04247
G1 X131.460 Y114.981 E0.09036
G1 X131.216 Y114.211 E0.03778
G1 X130.983 Y113.825 E0.02106
G1 X130.270 Y113.092 E0.04778
G1 X129.823 Y112.825 E0.02436
G1 X129.307 Y112.647 F9000.000
G1 F1800.000
G1 X129.002 Y112.557 E0.01487
G1 X125.689 Y112.543 E0.15485
G1 X125.681 Y106.612 E0.27721
G1 X125.680 Y105.929 F9000.000
G1 F1800.000
G1 X125.679 Y105.215 E0.03333
G1 X125.497 Y104.452 E0.03670
G1 X125.127 Y103.759 E0.03671
G1 X124.528 Y103.114 E0.04116
G1 X123.455 Y102.545 E0.05676
G1 X122.789 Y102.424 E0.03161
G1 X111.592 Y102.437 E0.52339
G1 X108.904 Y102.424 E0.12565
G1 X110.195 Y102.788 F9000.000
G1 F1800.000
G1 X110.309 Y102.775 E0.00539
G1 X111.590 Y102.788 E0.05987
G1 X122.775 Y102.775 E0.52281
G1 X123.318 Y102.869 E0.02574
G1 X124.293 Y103.377 E0.05138
G1 X124.830 Y103.947 E0.03661
G1 X125.161 Y104.556 E0.03240
G1 X125.333 Y105.277 E0.03462
G1 X125.333 Y105.350 E0.00343
G1 X125.333 Y106.033 F9000.000
G1 F1800.000
G1 X125.337 Y112.893 E0.32063
G1 X128.975 Y112.908 E0.17001
G1 X129.570 Y113.086 E0.02907
G1 X130.309 Y113.634 F9000.000
G1 F1800.000
G1 X130.695 Y114.028 E0.02579
G1 X130.888 Y114.338 E0.01707
G1 X131.117 Y115.062 E0.03546
G1 X131.126 Y116.864 E0.08422
G1 X131.023 Y117.380 E0.02461
G1 X130.671 Y118.237 F9000.000
G1 F1800.000
G1 X130.570 Y118.434 E0.01035
G1 X130.208 Y118.825 E0.02488
G1 X130.595 Y119.252 E0.02696
G1 X130.670 Y119.399 E0.00769
G1 X131.021 Y120.288 F9000.000
G1 F1800.000
G1 X131.129 Y120.830 E0.02586
G1 X131.118 Y122.433 E0.07491
G1 X130.915 Y123.099 E0.03255
G1 X130.568 Y123.632 E0.02973
G1 X129.843 Y124.278 E0.04537
G1 X129.339 Y124.506 E0.02585
G1 X128.820 Y124.610 E0.02474
G1 X102.180 Y124.610 E1.24522
G1 X101.540 Y124.461 E0.03070
G1 X100.875 Y124.075 E0.03594
G1 X100.233 Y123.372 E0.04449
G1 X99.987 Y122.862 E0.02647
G1 X99.871 Y122.334 E0.02527
G1 X99.872 Y120.821 E0.07070
G1 X99.979 Y120.202 E0.02937
G1 X100.330 Y119.386 F9000.000
G1 F1800.000
G1 X100.365 Y119.311 E0.00389
G1 X100.807 Y118.821 E0.03083
G1 X100.329 Y118.283 E0.03362
G1 X99.977 Y117.472 F9000.000
G1 F1800.000
G1 X99.871 Y116.820 E0.03090
G1 X99.868 Y115.218 E0.07488
G1 X99.950 Y114.748 E0.02230
G1 X100.307 Y114.022 E0.03779
G1 X100.807 Y113.496 E0.03393
G1 X101.458 Y113.083 F9000.000
G1 F1800.000
G1 X101.970 Y112.917 E0.02518
G1 X105.663 Y112.893 E0.17258
G1 X105.663 Y105.931 E0.32541
G1 X105.663 Y105.238 F9000.000
G1 F1800.000
G1 X105.663 Y105.105 E0.00623
G1 X105.812 Y104.465 E0.03071
G1 X106.200 Y103.797 E0.03610
G1 X106.863 Y103.184 E0.04224
G1 X107.382 Y102.922 E0.02714
G1 X107.999 Y102.792 E0.02951
G1 X108.715 Y102.802 E0.03344
G1 X108.913 Y102.775 E0.00937
G1 X110.195 Y102.788 E0.05990
G1 E-3.50000 F3600.000
;WIPE_START
G1 F7200.000
G1 X108.913 Y102.775 E-0.60875
G1 X108.715 Y102.802 E-0.09526
G1 X107.999 Y102.792 E-0.33980
G1 X107.382 Y102.922 E-0.29992
G1 X107.229 Y102.999 E-0.08128
;WIPE_END
G1 E-0.07500 F3600.000
G1 Z0.820 F9000.000
G1 X106.014 Y105.334
G1 Z0.320
G1 E5.00000 F2400.000
G1 F1800.000
G1 X106.014 Y113.242 E0.36966
G1 X102.002 Y113.268 E0.18753
G1 X101.498 Y113.439 E0.02490
G1 X101.090 Y113.709 E0.02287
G1 E-3.50000 F3600.000
;WIPE_START
G1 F7200.000
G1 X101.498 Y113.439 E-0.23246
